X:1
T:Belgrade, 87.87 D
T:R. F. Smith, 1894
T:Belgrade, 87.87 D
T:Public Domain
T:Public Domain
C:R. F. Smith, 1894
Z:Public Domain
%%score ( 1 2 ) ( 3 4 )
L:1/8
M:none
K:D
V:1 treble 
V:2 treble 
V:3 bass 
V:4 bass 
V:1
 (DE)(FG) [FA]2 [DF]2 | (CD)([EA][FB]) [Gc]2 [GA]2 | [Fd]2 (cB) (AG)([FB][Ac]) | %3
 (dc) [GB]2 [FA]2 z2 | (DE)(FG) (CD)(EF) | (BA)(Bc) [Dd]2 (DG) | (GF) z c (ed)([Ac][FB]) | %7
 [EA]2 [^GB]2 A2 z2 | ([CE][DF])([EG][FA]) [GB]2 [GB]2 | (BA)([EG][DF]) [DF]2 [CE]2 | %10
 (F^G)(^Ac) (ed)(cB) | [FA]2 [^E^G]2 F2 z2 | [DF]2 (ED) [EA]2 (DC)(AG)(FE) [B,B]2 (ED) | %13
 (CE)(FG) ([GB][FA])([EG][DF]) | [DF]2 [CE]2 D4 |] x8 |] %16
V:2
 D2 D2 x4 | E2 x6 | x2 G2 A2 x2 | F2 x6 | D2 D2 A2 A2 | D2 D2 x d2 x | c3 (G2 F2) x | x4 A2 x2 | %8
 x8 | F2 x6 | C2 F2 F2 F2 | x4 F2 x2 | x2 D2 x A2 B,2 B,2 x B2 x2 | A2 A2 x4 | x4 D4 |] x8 |] %16
V:3
 (F,G,) [D,A,]2 (D,E,)(F,G,) | (A,B,)(CD) [A,E]2 [A,C]2 | (B,A,) [G,D]2 ([F,D][E,C])([D,D][C,E]) | %3
 (B,,A,,) [G,,D]2 [D,D]2 z2 | [B,,F,]2 [B,,D]2 (A,,B,,)(C,D,) | %5
 G,2 G,2 ([F,A,][E,G,])([F,A,][G,B,]) | (C^D) z ^A, [B,D]2 ([C,E][^D,D]) | %7
 [E,C]2 [E,D]2 [A,C]2 z2 | [A,,A,]2 [A,,A,]2 ([A,,C][B,,D])([C,E][D,D]) | [^D,=C]2 (E,G,) A,2 A,2 | %10
 [F,^A,]2 [E,A,]2 [D,B,]2 [D,B,]2 | C,2 z B, [F,,A,]2 z2 | [D,A,]2 [D,A,]2 (D,C,)(B,,A,,) x8 | %13
 [E,G,]2 [E,G,]2 (E,D,)(C,B,,) | ([F,A,][E,C]) [D,D]2 [G,,D]2 [G,,B,]2 |] %15
 [A,,A,]2 [A,,G,]2 [D,F,]4 |] %16
V:4
 D,2 x D2 A,2 x | A,2 A,2 x4 | D2 x6 | D2 x6 | x4 A,2 A,2 | G,2 G,2 x4 | ^A,3 E2 x3 | x8 | x8 | %9
 x2 B,2 A,2 A,2 | x8 | C3 C,2 x3 | x4 A,2 A,2 x8 | x4 G,2 G,2 | x8 |] x8 |] %16

